X: 8387
T: Coven, The
R: reel
M: 4/4
K: Gmajor
B2BA GBde|B2 AG EGDG|F2AF EFDF|Adfe dBBA|
B2BA GBde|B2 AG EGGE|DGBd eBBA|GBAF G4:|
B2 Bd eged|Bgfd edBd|gfgd egbg|fdd^c d2 ed|
B2 Bd eged|Bgfd edBG|DGBd eBBA|GBAF G4:|

